build/img/settings.svg

<svg width="66" height="66" viewBox="0 0 66 66" fill="none" xmlns="http://www.w3.org/2000/svg">
<g clip-path="url(#clip0)">
<g clip-path="url(#clip1)">
<path fill-rule="evenodd" clip-rule="evenodd" d="M68.7748 32.0027C68.661 30.9906 67.4809 30.2301 66.4605 30.2301C63.1614 30.2301 60.2339 28.2929 59.0061 25.2971C57.7519 22.2287 58.5606 18.6502 61.0194 16.3948C61.7933 15.6873 61.8873 14.5029 61.2382 13.6802C59.5497 11.536 57.6305 9.59918 55.5351 7.92056C54.7145 7.26209 53.5106 7.3537 52.7991 8.14158C50.6533 10.518 46.7988 11.4013 43.8204 10.1585C40.7209 8.8547 38.7664 5.71394 38.9576 2.34252C39.0206 1.28354 38.2467 0.362795 37.1909 0.239833C34.5018 -0.0711898 31.7891 -0.0808339 29.092 0.218401C28.0483 0.333595 27.2743 1.23264 27.3094 2.27822C27.4268 5.61643 25.4487 8.70227 22.38 9.95922C19.4372 11.1613 15.6098 10.2855 13.4683 7.93021C12.7605 7.15439 11.5761 7.05902 10.7516 7.7017C8.59396 9.39451 6.63165 11.333 4.92759 13.4595C4.26295 14.2862 4.36073 15.4845 5.14244 16.1957C7.64804 18.4648 8.45707 22.0744 7.15538 25.1782C5.91263 28.1373 2.83991 30.0444 -0.677778 30.0444C-1.81927 30.0077 -2.63232 30.7739 -2.75716 31.8117C-3.0738 34.5163 -3.07755 37.2722 -2.77269 39.9988C-2.65964 41.0151 -1.44368 41.769 -0.412029 41.769C2.72284 41.6889 5.73261 43.6298 6.99518 46.7022C8.25374 49.7707 7.44471 53.347 4.98224 55.6043C4.21205 56.3118 4.11427 57.4942 4.76338 58.3169C6.43609 60.4475 8.35554 62.3862 10.4585 64.0788C11.2833 64.7434 12.4835 64.6496 13.1985 63.8618C15.3523 61.4794 19.2065 60.5978 22.1731 61.8429C25.2804 63.1427 27.235 66.2832 27.0437 69.6565C26.9813 70.7161 27.759 71.6384 28.8104 71.7595C30.1861 71.92 31.57 72.0001 32.9577 72.0001C34.2749 72.0001 35.5924 71.9277 36.9096 71.7812C37.9536 71.666 38.727 70.767 38.6919 69.7195C38.5711 66.3832 40.5527 63.2973 43.6174 62.0425C46.58 60.8325 50.3913 61.7181 52.5331 64.071C53.2449 64.8452 54.4209 64.9387 55.25 64.2982C57.4036 62.6094 59.3619 60.6725 61.074 58.5401C61.7384 57.7153 61.6446 56.5151 60.8589 55.8041C58.3533 53.5351 57.5402 49.925 58.8419 46.8233C60.0657 43.9035 63.0243 41.9431 66.2066 41.9431L66.6518 41.9546C67.684 42.0385 68.6337 41.2434 68.7588 40.1898C69.0759 37.4827 69.0797 34.7293 68.7748 32.0027ZM33.0581 48.0843C26.4364 48.0843 21.0501 42.698 21.0501 36.0763C21.0501 29.4548 26.4364 24.0683 33.0581 24.0683C39.6796 24.0683 45.0659 29.4548 45.0659 36.0763C45.0659 42.698 39.6796 48.0843 33.0581 48.0843Z" fill="white"/>
</g>
</g>
<defs>
<clipPath id="clip0">
<rect width="66" height="66" fill="white"/>
</clipPath>
<clipPath id="clip1">
<rect width="72" height="72" fill="white" transform="translate(-3)"/>
</clipPath>
</defs>
</svg>

<svg width="66" height="66" fill="none" xmlns="http://www.w3.org/2000/svg"><g clip-path="url(#clip0)"><g clip-path="url(#clip1)"><path fill-rule="evenodd" clip-rule="evenodd" d="M68.775 32.003c-.114-1.012-1.294-1.773-2.315-1.773-3.299 0-6.226-1.937-7.454-4.933-1.254-3.068-.445-6.647 2.013-8.902a2 2 0 0 0 .22-2.715 35.625 35.625 0 0 0-5.704-5.76 2.004 2.004 0 0 0-2.736.222c-2.146 2.376-6 3.26-8.979 2.017-3.1-1.304-5.054-4.445-4.862-7.816A1.997 1.997 0 0 0 37.19.24a35.941 35.941 0 0 0-8.099-.022 2.003 2.003 0 0 0-1.783 2.06c.118 3.338-1.86 6.424-4.929 7.681-2.943 1.202-6.77.327-8.912-2.029a2.008 2.008 0 0 0-2.716-.228 35.758 35.758 0 0 0-5.824 5.758 2.003 2.003 0 0 0 .214 2.736c2.506 2.269 3.315 5.878 2.013 8.982-1.242 2.96-4.315 4.866-7.833 4.866-1.141-.036-1.954.73-2.08 1.768a36.064 36.064 0 0 0-.015 8.187c.113 1.016 1.33 1.77 2.361 1.77 3.135-.08 6.145 1.86 7.407 4.933 1.259 3.069.45 6.645-2.013 8.902a2 2 0 0 0-.219 2.713 35.753 35.753 0 0 0 5.696 5.762c.824.664 2.024.57 2.74-.217 2.153-2.383 6.007-3.264 8.974-2.02 3.107 1.3 5.062 4.441 4.87 7.814a2 2 0 0 0 1.767 2.103 35.778 35.778 0 0 0 8.1.022 2.003 2.003 0 0 0 1.782-2.062c-.12-3.336 1.86-6.422 4.925-7.676 2.963-1.21 6.774-.325 8.916 2.028a2.012 2.012 0 0 0 2.717.227 35.841 35.841 0 0 0 5.824-5.758 1.999 1.999 0 0 0-.215-2.736c-2.506-2.269-3.319-5.879-2.017-8.98 1.224-2.92 4.182-4.88 7.365-4.88l.445.01c1.032.084 1.982-.71 2.107-1.764.317-2.707.32-5.46.016-8.187zM33.058 48.084c-6.622 0-12.008-5.386-12.008-12.008 0-6.621 5.386-12.008 12.008-12.008 6.622 0 12.008 5.387 12.008 12.008 0 6.622-5.386 12.008-12.008 12.008z" fill="#fff"/></g></g><defs><clipPath id="clip0"><path fill="#fff" d="M0 0h66v66H0z"/></clipPath><clipPath id="clip1"><path fill="#fff" transform="translate(-3)" d="M0 0h72v72H0z"/></clipPath></defs></svg>
